logos/stanford_bdl.svg

<svg xmlns="http://www.w3.org/2000/svg" width="780" height="466" style="shape-rendering:geometricPrecision;text-rendering:geometricPrecision;image-rendering:optimizeQuality;fill-rule:evenodd;clip-rule:evenodd"><path style="opacity:1" fill="#fefefe" d="M-.5-.5h780v466H-.5V-.5z"/><path style="opacity:1" fill="#fefefe" d="M262.5 341.5h-4v-45a194.342 194.342 0 0 1 23-13.5l23-17a834.785 834.785 0 0 1 26-23.5c.929-1.189 1.262-2.522 1-4-6.326 4.812-12.326 10.312-18 16.5a292.747 292.747 0 0 1-53 37.5 216.796 216.796 0 0 1-1.5-21c-.5-27.665-.667-55.331-.5-83a4242.682 4242.682 0 0 1-1-117c52.085-15.143 103.418-12.977 154 6.5 25.219 11.353 46.386 27.853 63.5 49.5 25.47 39.439 24.47 78.106-3 116-27.661 32.561-60.161 59.061-97.5 79.5a6156.99 6156.99 0 0 1-54.5 23.5c-18.877-4.423-38.044-6.09-57.5-5z"/><path style="opacity:1" fill="#981f1b" d="M580.5 306.5c11.309-.215 14.809 4.785 10.5 15-6.932 4.917-12.265 3.583-16-4-.824-5.018 1.009-8.685 5.5-11z"/><path style="opacity:1" fill="#696969" d="M449.5 390.5v4a118.86 118.86 0 0 1-9 9.5c-10.095 5.283-16.429 2.449-19-8.5v-3c3.518-12.683 10.352-23.35 20.5-32 1.653-9.216.153-10.049-4.5-2.5-13.19 7.482-20.356 3.648-21.5-11.5-8.209 9.268-18.542 13.601-31 13a306.212 306.212 0 0 1-64-11 1198.088 1198.088 0 0 0-36.5 16.5 397.26 397.26 0 0 1-26 7.5h-2a350.003 350.003 0 0 1-46-2c-1.449-6.831.551-12.331 6-16.5 11.359-5.673 23.359-9.173 36-10.5 3.578-.049 6.911-.715 10-2 19.456-1.09 38.623.577 57.5 5a6156.99 6156.99 0 0 0 54.5-23.5c37.339-20.439 69.839-46.939 97.5-79.5 27.47-37.894 28.47-76.561 3-116-17.114-21.647-38.281-38.147-63.5-49.5-50.582-19.477-101.915-21.643-154-6.5-2.198.375-4.198 1.042-6 2-70.098 18.626-127.598 56.293-172.5 113-21.787 27.715-28.454 58.715-20 93 3.482 7.446 8.315 13.946 14.5 19.5 35.763 22.892 74.429 29.225 116 19a858.197 858.197 0 0 0 39-11 213.2 213.2 0 0 0 28-12.5c1.495-.489 2.829-1.155 4-2a292.747 292.747 0 0 0 53-37.5c5.674-6.188 11.674-11.688 18-16.5.262 1.478-.071 2.811-1 4a834.785 834.785 0 0 0-26 23.5l-23 17a194.342 194.342 0 0 0-23 13.5c-1.495.489-2.829 1.155-4 2-31.852 14.914-65.352 23.914-100.5 27-26.989-.418-52.156-7.251-75.5-20.5-21.089-14.221-29.589-34.055-25.5-59.5.833-8.834 2.5-17.5 5-26a183.047 183.047 0 0 1 10-21c36.283-52.613 84.116-90.78 143.5-114.5 28.781-10.749 58.448-18.416 89-23 43.066-4.946 84.066 1.72 123 20 21.208 11.87 39.374 27.37 54.5 46.5 16.848 25.078 21.848 52.411 15 82-6.778 16.891-16.112 32.224-28 46-24.664 26.35-52.497 48.517-83.5 66.5a64196.597 64196.597 0 0 0-55 25c22.326 7.639 45.326 10.639 69 9 9.976-1.042 16.476-6.208 19.5-15.5 1.356-.88 2.856-1.214 4.5-1-1.332 5.357-1.166 10.69.5 16 5.504 4.738 11.17 4.738 17 0 3.523-5.09 5.023-10.757 4.5-17h3a73.575 73.575 0 0 0 1.5 18 419.827 419.827 0 0 1 18.5-16 3.647 3.647 0 0 1 1.5 1l1 9c4.815-8.025 10.815-9.025 18-3l5 8c1.302-3.774 3.469-6.941 6.5-9.5a444.344 444.344 0 0 1 17.5-9.5c1.605.601 2.938 1.601 4 3l1 13c.29 1.544.956 2.877 2 4 5.962-4.981 10.129-10.981 12.5-18a3.647 3.647 0 0 1 1.5 1 67.336 67.336 0 0 0 3 17 239.977 239.977 0 0 1 11.5-18 382.47 382.47 0 0 1 9 19c4.561-6.038 7.561-12.704 9-20 1.644-.214 3.144.12 4.5 1 1.896 6.13 5.062 11.463 9.5 16 1.667-1 3-2.333 4-4a191.227 191.227 0 0 1-2-15h4a53.069 53.069 0 0 0 1.5 14c2.333 2.667 4.667 2.667 7 0 2.634-4.647 5.301-9.313 8-14 1.356-.88 2.856-1.214 4.5-1a4.934 4.934 0 0 1-.5 3 3211.292 3211.292 0 0 0-8 10c-1.254 3.611-.088 5.111 3.5 4.5a94.102 94.102 0 0 0 10-13c4.597-2.54 8.43-1.707 11.5 2.5 1.434 3.025 1.934 6.025 1.5 9 2.603-1.062 5.27-1.228 8-.5.6 4.768 3.267 7.268 8 7.5a1990.196 1990.196 0 0 1 56-16.5c10.42-2.197 19.753-.197 28 6-.113 1.28-.78 2.113-2 2.5-6.894-5.88-14.894-8.047-24-6.5a1298.241 1298.241 0 0 1-59 16.5c-4.513-.419-7.846-2.586-10-6.5a36.433 36.433 0 0 0-12 .5v-4c2.988.345 4.321-.988 4-4-2.158-7.079-5.658-7.745-10.5-2-2.726 5.74-6.893 9.573-12.5 11.5-2.396-3.522-5.562-4.022-9.5-1.5a11.25 11.25 0 0 1-3.5-1c-1.8 2.824-4.3 4.824-7.5 6-1.261-.259-2.261-.926-3-2-1.274-5.214-3.607-9.881-7-14-4.321 5.645-7.321 11.978-9 19-1.784 2.503-3.451 2.503-5 0-1.29-6.041-3.456-11.708-6.5-17-5.205 4.719-8.538 10.552-10 17.5-1.284.684-2.451.517-3.5-.5a67.28 67.28 0 0 0-3.5-15 67.321 67.321 0 0 1-11 13.5 8.43 8.43 0 0 1-4 .5 27.866 27.866 0 0 0-1.5-11c-5.084 11.462-13.918 16.629-26.5 15.5-.153-9.19-4.32-15.69-12.5-19.5-9.336 3.673-12.502 10.34-9.5 20h-4c.166-6.675 0-13.342-.5-20l-16 13c-.973 10.825-.14 21.491 2.5 32z"/><path style="opacity:1" fill="#d7d7d7" d="M258.5 188.5c-.167 27.669 0 55.335.5 83 .171 7.179.671 14.179 1.5 21-1.171.845-2.505 1.511-4 2a316.283 316.283 0 0 0-1-35c.891-.761 1.558-1.761 2-3a1391.408 1391.408 0 0 1-.5-91 260.63 260.63 0 0 0 1.5 23z"/><path style="opacity:1" fill="#e3e3e3" d="M257.5 71.5c-.205 38.922.128 77.922 1 117a260.63 260.63 0 0 1-1.5-23c-.825 30.375-.659 60.709.5 91-.442 1.239-1.109 2.239-2 3v-186h-4c1.802-.958 3.802-1.625 6-2z"/><path style="opacity:1" fill="#fefefe" d="M251.5 73.5h4v186a316.283 316.283 0 0 1 1 35 213.2 213.2 0 0 1-28 12.5 858.197 858.197 0 0 1-39 11c-41.571 10.225-80.237 3.892-116-19-6.185-5.554-11.018-12.054-14.5-19.5-8.454-34.285-1.787-65.285 20-93 44.902-56.707 102.402-94.374 172.5-113z"/><path style="opacity:1" fill="#dbdbdb" d="M258.5 296.5v45h4c-3.089 1.285-6.422 1.951-10 2 1.068-.934 2.401-1.268 4-1 .65-15.038-.017-29.705-2-44 1.171-.845 2.505-1.511 4-2z"/><path style="opacity:1" fill="#f9f9f9" d="M509.5 341.5h4c.273 10.478-4.56 17.145-14.5 20-5.52-1.54-6.853-4.874-4-10 3.948-4.716 8.781-8.049 14.5-10z"/><path style="opacity:1" fill="#fafafa" d="M260.5 368.5c-1.967-7.597-2.634-15.597-2-24 19.529-2.132 38.863-.966 58 3.5a905.577 905.577 0 0 1-37 16 78.848 78.848 0 0 1-19 4.5z"/><path style="opacity:1" fill="#fcfcfc" d="M255.5 345.5c.992 7.816 1.326 15.816 1 24a131.146 131.146 0 0 1-41-1.5c-3.22-5.167-2.22-9.5 3-13a137.399 137.399 0 0 1 37-9.5z"/><path style="opacity:1" fill="#fdfdfd" d="M421.5 392.5h-163v-20a397.26 397.26 0 0 0 26-7.5 1198.088 1198.088 0 0 1 36.5-16.5 306.212 306.212 0 0 0 64 11c12.458.601 22.791-3.732 31-13 1.144 15.148 8.31 18.982 21.5 11.5 4.653-7.549 6.153-6.716 4.5 2.5-10.148 8.65-16.982 19.317-20.5 32z"/><path style="opacity:1" fill="#d6d6d6" d="M255.5 345.5c.709-.904 1.709-1.237 3-1-.634 8.403.033 16.403 2 24-1.068.934-2.401 1.268-4 1 .326-8.184-.008-16.184-1-24z"/><path style="opacity:1" fill="#f9f9f9" d="M445.5 392.5c-7-1.333-14-1.333-21 0 2.77-12.197 9.104-22.197 19-30a159.55 159.55 0 0 1 2 30z"/><path style="opacity:1" fill="#e0e0e0" d="M445.5 392.5c.237 1.291-.096 2.291-1 3h-20v-3c7-1.333 14-1.333 21 0z"/><path style="opacity:1" fill="#f0f0f0" d="M451.5 392.5c86.789-.991 173.622-1.325 260.5-1 4.452.641 8.952 1.308 13.5 2l-1 1c-25.38-.086-51.047-.086-77 0a1191.857 1191.857 0 0 1 49-1.5c-81.666-.5-163.333-.667-245-.5z"/><path style="opacity:1" fill="#d9d9d9" d="m449.5 390.5 2 2c81.667-.167 163.334 0 245 .5-16.505.169-32.838.669-49 1.5-65.962-.097-131.962-.097-198 0v-4z"/><path style="opacity:1" fill="#dadada" d="M256.5 372.5h2v20h163v3c-54.318-.341-108.652-.675-163-1 .47 9.168-.03 18.168-1.5 27-.5-8.994-.666-17.994-.5-27-49.278-1.324-49.278-1.991 0-2v-20z"/><path style="opacity:1" fill="#fbfbfb" d="M424.5 395.5h20c-3.337 6.5-8.67 9-16 7.5-2.897-1.715-4.231-4.215-4-7.5z"/></svg>

<?xml version="1.0" encoding="UTF-8"?>
<!DOCTYPE svg PUBLIC "-//W3C//DTD SVG 1.1//EN" "http://www.w3.org/Graphics/SVG/1.1/DTD/svg11.dtd">
<svg xmlns="http://www.w3.org/2000/svg" version="1.1" width="780px" height="466px" style="shape-rendering:geometricPrecision; text-rendering:geometricPrecision; image-rendering:optimizeQuality; fill-rule:evenodd; clip-rule:evenodd" xmlns:xlink="http://www.w3.org/1999/xlink">
<g><path style="opacity:1" fill="#fefefe" d="M -0.5,-0.5 C 259.5,-0.5 519.5,-0.5 779.5,-0.5C 779.5,154.833 779.5,310.167 779.5,465.5C 519.5,465.5 259.5,465.5 -0.5,465.5C -0.5,310.167 -0.5,154.833 -0.5,-0.5 Z"/></g>
<g><path style="opacity:1" fill="#fefefe" d="M 262.5,341.5 C 261.167,341.5 259.833,341.5 258.5,341.5C 258.5,326.5 258.5,311.5 258.5,296.5C 265.775,291.522 273.441,287.022 281.5,283C 289.167,277.333 296.833,271.667 304.5,266C 313.069,257.925 321.735,250.091 330.5,242.5C 331.429,241.311 331.762,239.978 331.5,238.5C 325.174,243.312 319.174,248.812 313.5,255C 297.208,269.476 279.542,281.976 260.5,292.5C 259.671,285.679 259.171,278.679 259,271.5C 258.5,243.835 258.333,216.169 258.5,188.5C 257.628,149.422 257.295,110.422 257.5,71.5C 309.585,56.3566 360.918,58.5233 411.5,78C 436.719,89.3528 457.886,105.853 475,127.5C 500.47,166.939 499.47,205.606 472,243.5C 444.339,276.061 411.839,302.561 374.5,323C 356.408,330.905 338.242,338.738 320,346.5C 301.123,342.077 281.956,340.41 262.5,341.5 Z"/></g>
<g><path style="opacity:1" fill="#981f1b" d="M 580.5,306.5 C 591.809,306.285 595.309,311.285 591,321.5C 584.068,326.417 578.735,325.083 575,317.5C 574.176,312.482 576.009,308.815 580.5,306.5 Z"/></g>
<g><path style="opacity:1" fill="#696969" d="M 449.5,390.5 C 449.5,391.833 449.5,393.167 449.5,394.5C 446.732,397.771 443.732,400.938 440.5,404C 430.405,409.283 424.071,406.449 421.5,395.5C 421.5,394.5 421.5,393.5 421.5,392.5C 425.018,379.817 431.852,369.15 442,360.5C 443.653,351.284 442.153,350.451 437.5,358C 424.31,365.482 417.144,361.648 416,346.5C 407.791,355.768 397.458,360.101 385,359.5C 363.268,358.1 341.935,354.434 321,348.5C 308.692,353.819 296.525,359.319 284.5,365C 275.819,367.824 267.152,370.324 258.5,372.5C 257.833,372.5 257.167,372.5 256.5,372.5C 241.108,372.842 225.774,372.176 210.5,370.5C 209.051,363.669 211.051,358.169 216.5,354C 227.859,348.327 239.859,344.827 252.5,343.5C 256.078,343.451 259.411,342.785 262.5,341.5C 281.956,340.41 301.123,342.077 320,346.5C 338.242,338.738 356.408,330.905 374.5,323C 411.839,302.561 444.339,276.061 472,243.5C 499.47,205.606 500.47,166.939 475,127.5C 457.886,105.853 436.719,89.3528 411.5,78C 360.918,58.5233 309.585,56.3566 257.5,71.5C 255.302,71.8751 253.302,72.5418 251.5,73.5C 181.402,92.126 123.902,129.793 79,186.5C 57.2127,214.215 50.5461,245.215 59,279.5C 62.4821,286.946 67.3154,293.446 73.5,299C 109.263,321.892 147.929,328.225 189.5,318C 202.535,314.655 215.535,310.988 228.5,307C 238.109,303.516 247.442,299.35 256.5,294.5C 257.995,294.011 259.329,293.345 260.5,292.5C 279.542,281.976 297.208,269.476 313.5,255C 319.174,248.812 325.174,243.312 331.5,238.5C 331.762,239.978 331.429,241.311 330.5,242.5C 321.735,250.091 313.069,257.925 304.5,266C 296.833,271.667 289.167,277.333 281.5,283C 273.441,287.022 265.775,291.522 258.5,296.5C 257.005,296.989 255.671,297.655 254.5,298.5C 222.648,313.414 189.148,322.414 154,325.5C 127.011,325.082 101.844,318.249 78.5,305C 57.4115,290.779 48.9115,270.945 53,245.5C 53.8331,236.666 55.4997,228 58,219.5C 60.8924,212.279 64.2258,205.279 68,198.5C 104.283,145.887 152.116,107.72 211.5,84C 240.281,73.2511 269.948,65.5844 300.5,61C 343.566,56.0537 384.566,62.7204 423.5,81C 444.708,92.8695 462.874,108.37 478,127.5C 494.848,152.578 499.848,179.911 493,209.5C 486.222,226.391 476.888,241.724 465,255.5C 440.336,281.85 412.503,304.017 381.5,322C 363.121,330.344 344.787,338.677 326.5,347C 348.826,354.639 371.826,357.639 395.5,356C 405.476,354.958 411.976,349.792 415,340.5C 416.356,339.62 417.856,339.286 419.5,339.5C 418.168,344.857 418.334,350.19 420,355.5C 425.504,360.238 431.17,360.238 437,355.5C 440.523,350.41 442.023,344.743 441.5,338.5C 442.5,338.5 443.5,338.5 444.5,338.5C 444.261,344.565 444.761,350.565 446,356.5C 452.019,350.98 458.186,345.647 464.5,340.5C 465.086,340.709 465.586,341.043 466,341.5C 466.333,344.5 466.667,347.5 467,350.5C 471.815,342.475 477.815,341.475 485,347.5C 486.667,350.167 488.333,352.833 490,355.5C 491.302,351.726 493.469,348.559 496.5,346C 502.269,342.699 508.103,339.532 514,336.5C 515.605,337.101 516.938,338.101 518,339.5C 518.333,343.833 518.667,348.167 519,352.5C 519.29,354.044 519.956,355.377 521,356.5C 526.962,351.519 531.129,345.519 533.5,338.5C 534.086,338.709 534.586,339.043 535,339.5C 535.275,345.32 536.275,350.987 538,356.5C 541.61,350.261 545.443,344.261 549.5,338.5C 552.644,344.687 555.644,351.021 558.5,357.5C 563.061,351.462 566.061,344.796 567.5,337.5C 569.144,337.286 570.644,337.62 572,338.5C 573.896,344.63 577.062,349.963 581.5,354.5C 583.167,353.5 584.5,352.167 585.5,350.5C 584.637,345.537 583.97,340.537 583.5,335.5C 584.833,335.5 586.167,335.5 587.5,335.5C 587.378,340.232 587.878,344.898 589,349.5C 591.333,352.167 593.667,352.167 596,349.5C 598.634,344.853 601.301,340.187 604,335.5C 605.356,334.62 606.856,334.286 608.5,334.5C 608.649,335.552 608.483,336.552 608,337.5C 605.303,340.858 602.636,344.191 600,347.5C 598.746,351.111 599.912,352.611 603.5,352C 607.216,347.952 610.55,343.618 613.5,339C 618.097,336.46 621.93,337.293 625,341.5C 626.434,344.525 626.934,347.525 626.5,350.5C 629.103,349.438 631.77,349.272 634.5,350C 635.1,354.768 637.767,357.268 642.5,357.5C 661.039,351.74 679.706,346.24 698.5,341C 708.92,338.803 718.253,340.803 726.5,347C 726.387,348.28 725.72,349.113 724.5,349.5C 717.606,343.62 709.606,341.453 700.5,343C 680.91,348.979 661.243,354.479 641.5,359.5C 636.987,359.081 633.654,356.914 631.5,353C 627.476,352.503 623.476,352.669 619.5,353.5C 619.5,352.167 619.5,350.833 619.5,349.5C 622.488,349.845 623.821,348.512 623.5,345.5C 621.342,338.421 617.842,337.755 613,343.5C 610.274,349.24 606.107,353.073 600.5,355C 598.104,351.478 594.938,350.978 591,353.5C 589.774,353.355 588.607,353.022 587.5,352.5C 585.7,355.324 583.2,357.324 580,358.5C 578.739,358.241 577.739,357.574 577,356.5C 575.726,351.286 573.393,346.619 570,342.5C 565.679,348.145 562.679,354.478 561,361.5C 559.216,364.003 557.549,364.003 556,361.5C 554.71,355.459 552.544,349.792 549.5,344.5C 544.295,349.219 540.962,355.052 539.5,362C 538.216,362.684 537.049,362.517 536,361.5C 535.404,356.35 534.237,351.35 532.5,346.5C 529.432,351.459 525.765,355.959 521.5,360C 520.207,360.49 518.873,360.657 517.5,360.5C 517.737,356.727 517.237,353.06 516,349.5C 510.916,360.962 502.082,366.129 489.5,365C 489.347,355.81 485.18,349.31 477,345.5C 467.664,349.173 464.498,355.84 467.5,365.5C 466.167,365.5 464.833,365.5 463.5,365.5C 463.666,358.825 463.5,352.158 463,345.5C 457.667,349.833 452.333,354.167 447,358.5C 446.027,369.325 446.86,379.991 449.5,390.5 Z"/></g>
<g><path style="opacity:1" fill="#d7d7d7" d="M 258.5,188.5 C 258.333,216.169 258.5,243.835 259,271.5C 259.171,278.679 259.671,285.679 260.5,292.5C 259.329,293.345 257.995,294.011 256.5,294.5C 256.811,282.753 256.478,271.086 255.5,259.5C 256.391,258.739 257.058,257.739 257.5,256.5C 256.341,226.209 256.175,195.875 257,165.5C 257.171,173.344 257.671,181.011 258.5,188.5 Z"/></g>
<g><path style="opacity:1" fill="#e3e3e3" d="M 257.5,71.5 C 257.295,110.422 257.628,149.422 258.5,188.5C 257.671,181.011 257.171,173.344 257,165.5C 256.175,195.875 256.341,226.209 257.5,256.5C 257.058,257.739 256.391,258.739 255.5,259.5C 255.5,197.5 255.5,135.5 255.5,73.5C 254.167,73.5 252.833,73.5 251.5,73.5C 253.302,72.5418 255.302,71.8751 257.5,71.5 Z"/></g>
<g><path style="opacity:1" fill="#fefefe" d="M 251.5,73.5 C 252.833,73.5 254.167,73.5 255.5,73.5C 255.5,135.5 255.5,197.5 255.5,259.5C 256.478,271.086 256.811,282.753 256.5,294.5C 247.442,299.35 238.109,303.516 228.5,307C 215.535,310.988 202.535,314.655 189.5,318C 147.929,328.225 109.263,321.892 73.5,299C 67.3154,293.446 62.4821,286.946 59,279.5C 50.5461,245.215 57.2127,214.215 79,186.5C 123.902,129.793 181.402,92.126 251.5,73.5 Z"/></g>
<g><path style="opacity:1" fill="#dbdbdb" d="M 258.5,296.5 C 258.5,311.5 258.5,326.5 258.5,341.5C 259.833,341.5 261.167,341.5 262.5,341.5C 259.411,342.785 256.078,343.451 252.5,343.5C 253.568,342.566 254.901,342.232 256.5,342.5C 257.15,327.462 256.483,312.795 254.5,298.5C 255.671,297.655 257.005,296.989 258.5,296.5 Z"/></g>
<g><path style="opacity:1" fill="#f9f9f9" d="M 509.5,341.5 C 510.833,341.5 512.167,341.5 513.5,341.5C 513.773,351.978 508.94,358.645 499,361.5C 493.48,359.96 492.147,356.626 495,351.5C 498.948,346.784 503.781,343.451 509.5,341.5 Z"/></g>
<g><path style="opacity:1" fill="#fafafa" d="M 260.5,368.5 C 258.533,360.903 257.866,352.903 258.5,344.5C 278.029,342.368 297.363,343.534 316.5,348C 304.283,353.609 291.95,358.942 279.5,364C 273.329,366.293 266.995,367.793 260.5,368.5 Z"/></g>
<g><path style="opacity:1" fill="#fcfcfc" d="M 255.5,345.5 C 256.492,353.316 256.826,361.316 256.5,369.5C 242.756,371.151 229.089,370.651 215.5,368C 212.28,362.833 213.28,358.5 218.5,355C 230.401,350.108 242.735,346.941 255.5,345.5 Z"/></g>
<g><path style="opacity:1" fill="#fdfdfd" d="M 421.5,392.5 C 367.167,392.5 312.833,392.5 258.5,392.5C 258.5,385.833 258.5,379.167 258.5,372.5C 267.152,370.324 275.819,367.824 284.5,365C 296.525,359.319 308.692,353.819 321,348.5C 341.935,354.434 363.268,358.1 385,359.5C 397.458,360.101 407.791,355.768 416,346.5C 417.144,361.648 424.31,365.482 437.5,358C 442.153,350.451 443.653,351.284 442,360.5C 431.852,369.15 425.018,379.817 421.5,392.5 Z"/></g>
<g><path style="opacity:1" fill="#d6d6d6" d="M 255.5,345.5 C 256.209,344.596 257.209,344.263 258.5,344.5C 257.866,352.903 258.533,360.903 260.5,368.5C 259.432,369.434 258.099,369.768 256.5,369.5C 256.826,361.316 256.492,353.316 255.5,345.5 Z"/></g>
<g><path style="opacity:1" fill="#f9f9f9" d="M 445.5,392.5 C 438.5,391.167 431.5,391.167 424.5,392.5C 427.27,380.303 433.604,370.303 443.5,362.5C 445.111,372.432 445.777,382.432 445.5,392.5 Z"/></g>
<g><path style="opacity:1" fill="#e0e0e0" d="M 445.5,392.5 C 445.737,393.791 445.404,394.791 444.5,395.5C 437.833,395.5 431.167,395.5 424.5,395.5C 424.5,394.5 424.5,393.5 424.5,392.5C 431.5,391.167 438.5,391.167 445.5,392.5 Z"/></g>
<g><path style="opacity:1" fill="#f0f0f0" d="M 451.5,392.5 C 538.289,391.509 625.122,391.175 712,391.5C 716.452,392.141 720.952,392.808 725.5,393.5C 725.167,393.833 724.833,394.167 724.5,394.5C 699.12,394.414 673.453,394.414 647.5,394.5C 663.662,393.669 679.995,393.169 696.5,393C 614.834,392.5 533.167,392.333 451.5,392.5 Z"/></g>
<g><path style="opacity:1" fill="#d9d9d9" d="M 449.5,390.5 C 450.167,391.167 450.833,391.833 451.5,392.5C 533.167,392.333 614.834,392.5 696.5,393C 679.995,393.169 663.662,393.669 647.5,394.5C 581.538,394.403 515.538,394.403 449.5,394.5C 449.5,393.167 449.5,391.833 449.5,390.5 Z"/></g>
<g><path style="opacity:1" fill="#dadada" d="M 256.5,372.5 C 257.167,372.5 257.833,372.5 258.5,372.5C 258.5,379.167 258.5,385.833 258.5,392.5C 312.833,392.5 367.167,392.5 421.5,392.5C 421.5,393.5 421.5,394.5 421.5,395.5C 367.182,395.159 312.848,394.825 258.5,394.5C 258.97,403.668 258.47,412.668 257,421.5C 256.5,412.506 256.334,403.506 256.5,394.5C 207.222,393.176 207.222,392.509 256.5,392.5C 256.5,385.833 256.5,379.167 256.5,372.5 Z"/></g>
<g><path style="opacity:1" fill="#fbfbfb" d="M 424.5,395.5 C 431.167,395.5 437.833,395.5 444.5,395.5C 441.163,402 435.83,404.5 428.5,403C 425.603,401.285 424.269,398.785 424.5,395.5 Z"/></g>
</svg>
